X:1

T:Whittingham Vale Hornpipe, The

M:C

L:1/8

R:Hornpipe

Z:AK/Fiddler’s Companion

K:G

B>c |: d>B d>g e>f g>e | d>B G>B d2 g>a | b>a g>f e>f g>a | .f2 .d2.d2 (B>c) |

d>B d>g e>f g>e | d>B G>B d2 g>f | e>g f>e d>g b>a |1 .g2.g2.g2 B>c :|2 g.2 g2 g4 ||

|: b>a g>f .g2.d2 | e>f g>e d2 B>A | G>B d>e d>g f>g | .b2.a2.a2 d>g | b>a g>f .g2.d2 |

e>f g>e d2 g>f | e>g f>e d>e f>a |1 .g.g.g2 d>g :|2 .g2.g2 g4 ||

                          

WHITTLIN' WOOD. Old‑Time. Source: Pat Kingery, Southern Ky.

 

WHO ARE YOU? (Cia E Tusa?). Irish, Air (2/4 time, "with spirit"). G Major. Standard tuning. One part. O'Neill (Music of Ireland: 1850 Melodies), 1979; No. 239, pg. 41.

